client/src/assets/images/icon-height-active.svg

<svg viewBox="0 0 48.89 54.162" xmlns="http://www.w3.org/2000/svg"><g fill="#fff"><path d="m11.458 9.975h10.705v1.504h-10.705z"/><path d="m11.458 43.458h10.705v1.504h-10.705z"/><path d="m11.458 35.087h10.705v1.504h-10.705z"/><path d="m11.458 18.346h10.705v1.504h-10.705z"/><path d="m11.458 26.717h10.705v1.504h-10.705z"/><path d="m22.163 54.162h-21.411a.752.752 0 0 1 -.752-.752v-51.882a.752.752 0 0 1 .752-.752h21.411a.752.752 0 0 1 .752.752v51.882a.752.752 0 0 1 -.752.752zm-20.663-1.505h19.911v-50.377h-19.911z"/><path d="m40.886 53.575a.752.752 0 0 1 -.752-.752v-51.583a.752.752 0 0 1 1.5 0v51.582a.752.752 0 0 1 -.748.753z"/><path d="m40.886 53.724a.755.755 0 0 1 -.562-.252l-7.254-8.158a.752.752 0 0 1 1.124-1l6.691 7.525 6.69-7.525a.752.752 0 0 1 1.124 1l-7.252 8.158a.755.755 0 0 1 -.561.252z"/><path d="m33.633 9.65a.752.752 0 0 1 -.563-1.25l7.253-8.16a.778.778 0 0 1 1.124 0l7.253 8.16a.752.752 0 0 1 -1.124 1l-6.69-7.525-6.691 7.525a.752.752 0 0 1 -.562.25z"/></g></svg>

<svg xmlns="http://www.w3.org/2000/svg" viewBox="0 0 48.89 54.162"><defs><style>.a{fill:#fff;}</style></defs><title>icon-height</title><rect class="a" x="11.458" y="9.975" width="10.705" height="1.504"/><rect class="a" x="11.458" y="43.458" width="10.705" height="1.504"/><rect class="a" x="11.458" y="35.087" width="10.705" height="1.504"/><rect class="a" x="11.458" y="18.346" width="10.705" height="1.504"/><rect class="a" x="11.458" y="26.717" width="10.705" height="1.504"/><path class="a" d="M22.163,54.162H.752A.752.752,0,0,1,0,53.41V1.528A.752.752,0,0,1,.752.776H22.163a.752.752,0,0,1,.752.752V53.41A.752.752,0,0,1,22.163,54.162ZM1.5,52.657H21.411V2.28H1.5Z"/><path class="a" d="M40.886,53.575a.752.752,0,0,1-.752-.752V1.24a.752.752,0,0,1,1.5,0V52.822A.752.752,0,0,1,40.886,53.575Z"/><path class="a" d="M40.886,53.724a.755.755,0,0,1-.562-.252L33.07,45.314a.752.752,0,0,1,1.124-1l6.691,7.525,6.69-7.525a.752.752,0,0,1,1.124,1l-7.252,8.158A.755.755,0,0,1,40.886,53.724Z"/><path class="a" d="M33.633,9.65A.752.752,0,0,1,33.07,8.4L40.323.24a.778.778,0,0,1,1.124,0L48.7,8.4a.752.752,0,0,1-1.124,1l-6.69-7.525L34.195,9.4A.752.752,0,0,1,33.633,9.65Z"/></svg>
